X: 3
T: Willafjord $1(R-91)
I: Willafjord	R-91	D	reel
M: C|
R: reel
K: D
"D"A2FA zDFA| "G"B2GB zDGB| "D"A2FA zDFA| "A7"EFGA GFED|
"D"A2FA zDFA| "G"B2GB zDGB| "A7"ABcd efge| "D"f2d2 d2 z2 :|
|:e2| "D"f2df zAdf| "Em"geaf gfed| "D"f2df zAdf| "A7"e2ce zAce|
    "D"f2df zAdf| "Em"geaf gfed| "A"ABcd efge| "D"f2d2 d2 :|
%%scale .5
%%text 10/17/11 

#include "RightHeader.h"
%%footer 1/20/02 For use only by Roaring Jelly members
% ---------- set 5 ----------
% Ragtime Annie (D) / Liza Jane (A) / Johnny don't Get Drunk (D)

%%text Set 5
%%vskip -1cm
%%scale .67
